X:1
T:James Gibb editions
T:Whence shall my tears begin? - Barnby
%%score [ ( 1 2 ) ( 3 4 ) ]
L:1/8
Q:1/4=72
M:4/4
K:Eb
V:1 treble nm="Midi_74"
V:2 treble 
V:3 bass nm="Midi_74"
V:4 bass 
V:1
"^Whence shall my tears begin?""^St Andrew of Crete\ntr. John Mason Neale""^Joseph Barnby\n(1838-96)""^Covenant  (66. 86. 10. 10)"!f! G2 | %1
 c2 c2 B2 A2 | G6 || G2 | e2"^r" dc d2 d2 | c4 || c4 | B2 c2"^1" A2 GF | G2 A2 F2 ||[M:4/4] G2 | %10
 E2 E2"^1" F2 F2 | G6 || D2 | E2 F2 G3 G |"^cresc." G2 c2 c2 d2 |!f! e6 || e2 | %17
 c2 B2 G2"^dim." A2 | G2 F"^rit."E D2 D2 | C6 || F4 =E4 |] %21
V:2
 G2 | E2 E2 G2 F2 | D6 || G2 | G2 C2 A2 GF | E4 || A4 | G2 G2 F2 D2 | E2 E2 D2 ||[M:4/4] D2 | %10
 D2 C2 C2 C2 | =B,6 || =B,2 | C2 D2 E3 E | E2 E2 A2 GF | E6 || E2 | E2 F2 E2 E2 | D2 C2 C2 =B,2 | %19
 C6 || C4 C4 |] %21
V:3
 G,2 | G,2 A,2 G,2 C2 | =B,6 || D2 | C2 DE DC =B,2 | C4 ||"^-" E4 |"^-" E2 E2 C2 B,2 | %8
 B,2 A,2 A,2 || %9
[M:4/4]"^1. Whence shall my tears begin?\nWhat first-fruits shall I bear\nOf earnest sorrow for my sin?\nOr how my woes declare?\nO Thou! the merciful and gracious one\nForgive the foul transgressions I have done.\n\n2. With Adam I have vied,\nYea, passed him, in my fall;\nAnd I am naked now, by pride\nAnd lust made bare of all;\nOf Thee, O God, and that celestial band,\nAnd all the glory of the promised land.\n\n3. No earthly Eve beguiled\nMy body into sin:\nA spiritual temptress smiled,\nConcupiscence within:\nUnbridled passion grasped the unhallowed sweet:\nMost bitter - ever bitter - was the meat.\n\n4. If Adams righteous doom,\nBecause he dared transgress\nThy one decree, lost Edens bloom\nAnd Edens loveliness:\nWhat recompence, O Lord, must I expect,\nWho all my life Thy quickening laws neglect?\n\n5. By mine own act, like Cain,\nA murderer was I made:\nBy mine own act my soul was slain,\nWhen Thou wast disobeyed:\nAnd lusts each day are quickened, warring still\nAgainst Thy grace with many a deed of ill." G,2 | %10
"^1" G,3 C, F,E, D,C, | D,6 || G,2 | G,2 B,2"^1" B,3 B, | B,2 A,2 C2 B,A, | G,6 || %16
"^6. Thou formedst me of clay,\nO heavnly Potter! Thou\nIn fleshly vesture didst array,\nWith life and breath endow.\nThou who didst make, didst ransom, and dost know\nTo Thy repentant creature pity show!\n\n7. My guilt for vengeance cries;\nBut yet Thou pardonest all,\nAnd whom Thou lovst Thou dost chastise,\nAnd mournst for them that fall:\nThou, as a Father, markst our tears and pain,\nAnd welcomest the prodigal again.\n\n8. I lie before Thy door,\nO turn me not away!\nNor in mine old age give me oer\nTo Satan for a prey!\nBut ere the end of life and term of grace,\nThou merciful! my many sins efface!\n\n9. The priest beheld, and passed\nThe way he had to go:\nA careless glance the Levite cast,\nAnd left me to my woe:\nBut Thou, O Jesu, Marys Son, console,\nDraw nigh, and succour me, and make me whole!\n\n10. Thou Spotless Lamb divine,\nWho takest sins away,\nRemove, remove, the load that mine\nUpon my conscience lay:\nAnd, of Thy tender mercy, grant Thou me\nTo find remission of iniquity.\n" B,2 | %17
 A,2 F,2 B,2 E,2 | G,2 G,2 A,2 G,F, | E,6 || A,4 G,4 |] %21
V:4
 G,2 | C,2 A,,2 E,2 F,2 | G,6 || =B,2 | C2 A,2 F,2 G,2 | C,4 || A,,4 | E,2 C,2 F,2 B,,2 | %8
 E,2 C,2 C,2 ||[M:4/4] =B,,2 | C,2 C,2 A,,2 A,,2 | G,,6 || G,,2 | C,2 B,,2 E,3 E, | %14
 E,2 A,2 F,2 B,,2 | E,6 || G,2 | A,2 D,2 E,2 C,2 | =B,,2 C,2 F,,2 G,,2 | C,6 || F,,4 C,4 |] %21

